X: 352
T: The powers of punch
C: anon.
O: Ireland
B: Francis O'Neill: "The Dance Music of Ireland" (1907) no. 352
R: Double jig
Z: Transcribed by Frank Nordberg - http://www.musicaviva.com
F: http://www.musicaviva.com/abc/tunes/ireland/oneill-1001/oneill-1001-035
2.abc
M: 6/8
L: 1/8
K: G
E|DEF GB(G|A)EF G2E|DGA GB(c|d)ec (Bc)d|(e/f/g)(e d)Bd|cBA BGE|DcB AG(A|B
)GG G2:|
||B|dBd gd(B|c)AG (FG)A|dBd gdB|d(ef) g2f|(e/f/g)(e d)BG|cBA BGE|DcB AG(A
|B)GG G2:|
||E|DGB cd(e|d)g(e d)BG|c(e/f/g) dBG|EFG A2d|gfe afd|(e/f/g)(e d)BG|EcB A
G(A|B)GG G2:|
||c|BAG AF(D|G)DC (B,A,)G,|G,GF GDB,|A,AA (A2a)|bgb af(a|g)fe (dB)G|EcB A
G(A|B)GG G2:|
W:
W:
W: From Musica Viva - http://www.musicaviva.com
W: the Internet center for free sheet music downloads.


